X: 1
T: Welcome to Hamilton House
C: by Muriel Johnstone
R: strathspey
S: Boston Scottish Fiddle Club email 2020-12-19
Z: 2020 John Chambers <jc:trillian.mit.edu>
M: none
L: 1/16
K: Em
%
e3f | "Em"g3f eB3    G3F EG3 | "D"F2GA d3A     FD3 D3F | "Em"E3F "C"G3A "G"B3A Bd3 | "Am"A4 "Bm"Bd3 "Em"e3d   ||
e3f | "Em"g3f e3d "G"dG3 B3G | "D"F2GA d3A "Bm"FD3 D3F |  "C"E3F    G3A "G"B3A Bd3 | "Am"A4 "Bm"Bd3 "Em"e4 e4 |]
%
[|"Em"E4    E3D "C"E4 EFG2 | "G"B,D3     D3B, D4 "B7"G3F | "Em"E4     E3D  "C"E4      e3d | "Bm"dd3 Bd3 "Em"e4 efg2 ||
|| "C"E4 "D"E3D "C"E4 EFG2 | "D"(3F2G2A2 d3A  FD3    D3F | "Em"Ee3 "D"Ff3 "Em"Gg3 "Am"Aa3 | "Bm"bb3 B2d "Em"e4 |]
